X: 33298
T: Put On The Steam
R: reel
M: 4/4
K: Aminor
G|EAAB cBAc|BGDC B,A,G,B,|A,AcB Acea|gedB cAA:|
K:A
B|Aaga eaca|B=gdg B=GGB|A(aga) eaca|=gedB =cAAB|
A(aga) eaca|B=gdg B=GGB|AB=cA Bcdf|{f}=gedB =cAA||

